images_elementary_svg/cmd/sc_dataimport.svg

<svg height="16" width="16" xmlns="http://www.w3.org/2000/svg" xmlns:xlink="http://www.w3.org/1999/xlink"><linearGradient id="a"><stop offset="0" stop-color="#b48be3"/><stop offset="1" stop-color="#8441d1"/></linearGradient><linearGradient id="b" gradientTransform="matrix(.25378586 0 0 .30501865 19.128979 -.685477)" gradientUnits="userSpaceOnUse" x1="-51.786404" x2="-51.786404" y1="50.786446" y2="2.906247"><stop offset="0" stop-opacity=".339506"/><stop offset="1" stop-opacity=".246914"/></linearGradient><linearGradient id="c" gradientTransform="matrix(.24324324 0 0 .35135133 2.162164 -.432428)" gradientUnits="userSpaceOnUse" x1="23.99999" x2="23.99999" y1="6.923065" y2="41.076912"><stop offset="0" stop-color="#fff"/><stop offset="0" stop-color="#fff" stop-opacity=".235294"/><stop offset="1" stop-color="#fff" stop-opacity=".156863"/><stop offset="1" stop-color="#fff" stop-opacity=".392157"/></linearGradient><linearGradient id="d" gradientTransform="matrix(.28571361 0 0 .30419701 1.142873 .232605)" gradientUnits="userSpaceOnUse" x1="25.132275" x2="25.132275" y1=".985206" y2="47.013336"><stop offset="0" stop-color="#f4f4f4"/><stop offset="1" stop-color="#dbdbdb"/></linearGradient><linearGradient id="e" gradientTransform="matrix(0 -.5372019 .57681717 0 -15.997188 19.865617)" gradientUnits="userSpaceOnUse" x1="40.957993" x2="18.680689" y1="46.97065" y2="46.97065"><stop offset="0" stop-color="#fff"/><stop offset=".45000002" stop-color="#fff" stop-opacity=".235294"/><stop offset=".65000004" stop-color="#fff" stop-opacity=".156863"/><stop offset="1" stop-color="#fff" stop-opacity=".392157"/></linearGradient><linearGradient id="f" gradientUnits="userSpaceOnUse" x1="17.457523" x2="17.457523" xlink:href="#a" y1="-2.374197" y2="10.619582"/><linearGradient id="g" gradientUnits="userSpaceOnUse" x1="15.911407" x2="15.911407" xlink:href="#a" y1="2.264152" y2="6.099961"/><path d="m1 1c2.2915074 0 11.999988.0008904 11.999988.0008904l.000012 13.9991096h-12z" fill="url(#d)"/><path d="m12.5 14.5h-11.0000001v-13h11.0000001z" fill="none" stroke="url(#c)" stroke-linecap="round"/><path d="m.4999621.49997396c2.5206756 0 13.0000629.000954 13.0000629.000954l.000013 14.99909804h-13.000076z" fill="none" stroke="url(#b)" stroke-linejoin="round" stroke-width=".999922"/><g transform="matrix(-.64678195 0 0 .64678195 22.291211 5.535588)"><path d="m16.710054 9.864121 7.03706-6.1547966-7.05559-5.8627919v3.6474278l-6.191524.0060395.01853 4.6485497 6.191524-.0060395z" style="display:block;stroke:#6326b9;stroke-width:1.546116;stroke-linejoin:round;stroke-miterlimit:7;stroke-opacity:.490196;fill:url(#f)"/><path d="m16.691406-2.1542969v3.6484375l-6.191406.0058594.01758 4.6484375 6.19336-.00586v3.7207031l7.037109-6.1542968z" display="block" fill="url(#g)"/><path d="m17.691406-.08007812v2.57421872l-6.191406.0058594.01758 2.6484375 6.19336-.00586v2.6113281l4.470703-4.0449218z" display="block" fill="none" stroke="url(#e)" stroke-miterlimit="7" stroke-width="1.546116"/></g></svg>

<?xml version="1.0" encoding="UTF-8" standalone="no"?>
<svg
   xmlns:dc="http://purl.org/dc/elements/1.1/"
   xmlns:cc="http://creativecommons.org/ns#"
   xmlns:rdf="http://www.w3.org/1999/02/22-rdf-syntax-ns#"
   xmlns:svg="http://www.w3.org/2000/svg"
   xmlns="http://www.w3.org/2000/svg"
   xmlns:xlink="http://www.w3.org/1999/xlink"
   xmlns:sodipodi="http://sodipodi.sourceforge.net/DTD/sodipodi-0.dtd"
   xmlns:inkscape="http://www.inkscape.org/namespaces/inkscape"
   id="svg3942"
   height="16"
   width="16"
   version="1.1"
   sodipodi:docname="sc_dataimport.svg"
   inkscape:export-filename="/home/rizmut/Dokumen/Rizmut/Github/libreoffice-style-elementary/images_elementary/cmd/sc_exportdialog.png"
   inkscape:export-xdpi="96"
   inkscape:export-ydpi="96"
   inkscape:version="0.92.3 (unknown)">
  <sodipodi:namedview
     pagecolor="#ffffff"
     bordercolor="#666666"
     borderopacity="1"
     objecttolerance="10"
     gridtolerance="10"
     guidetolerance="10"
     inkscape:pageopacity="0"
     inkscape:pageshadow="2"
     inkscape:window-width="1366"
     inkscape:window-height="706"
     id="namedview23"
     showgrid="true"
     inkscape:zoom="22.627417"
     inkscape:cx="4.3962165"
     inkscape:cy="8.8563889"
     inkscape:window-x="0"
     inkscape:window-y="0"
     inkscape:window-maximized="1"
     inkscape:current-layer="g869"
     inkscape:snap-global="true">
    <inkscape:grid
       type="xygrid"
       id="grid843" />
  </sodipodi:namedview>
  <defs
     id="defs3944">
    <linearGradient
       inkscape:collect="always"
       id="linearGradient1156">
      <stop
         style="stop-color:#b48be3;stop-opacity:1;"
         offset="0"
         id="stop1152" />
      <stop
         style="stop-color:#8441d1;stop-opacity:1"
         offset="1"
         id="stop1154" />
    </linearGradient>
    <linearGradient
       gradientTransform="matrix(0.25378586,0,0,0.30501865,19.128979,-0.68547704)"
       gradientUnits="userSpaceOnUse"
       xlink:href="#linearGradient3104-9"
       id="linearGradient3092"
       y2="2.9062471"
       x2="-51.786404"
       y1="50.786446"
       x1="-51.786404" />
    <linearGradient
       id="linearGradient3104-9">
      <stop
         offset="0"
         style="stop-color:#000000;stop-opacity:0.33950618"
         id="stop3106-5" />
      <stop
         offset="1"
         style="stop-color:#000000;stop-opacity:0.24691358"
         id="stop3108-5" />
    </linearGradient>
    <linearGradient
       gradientTransform="matrix(0.24324324,0,0,0.35135133,2.1621636,-0.43242804)"
       gradientUnits="userSpaceOnUse"
       xlink:href="#linearGradient3977"
       id="linearGradient3095"
       y2="41.076912"
       x2="23.99999"
       y1="6.9230647"
       x1="23.99999" />
    <linearGradient
       id="linearGradient3977">
      <stop
         offset="0"
         style="stop-color:#ffffff;stop-opacity:1"
         id="stop3979" />
      <stop
         offset="0"
         style="stop-color:#ffffff;stop-opacity:0.23529412"
         id="stop3981" />
      <stop
         offset="1"
         style="stop-color:#ffffff;stop-opacity:0.15686275"
         id="stop3983" />
      <stop
         offset="1"
         style="stop-color:#ffffff;stop-opacity:0.39215687"
         id="stop3985" />
    </linearGradient>
    <linearGradient
       id="linearGradient3600">
      <stop
         offset="0"
         style="stop-color:#f4f4f4;stop-opacity:1"
         id="stop3602" />
      <stop
         offset="1"
         style="stop-color:#dbdbdb;stop-opacity:1"
         id="stop3604" />
    </linearGradient>
    <linearGradient
       gradientTransform="matrix(0.28571361,0,0,0.30419701,1.1428727,0.2326048)"
       gradientUnits="userSpaceOnUse"
       xlink:href="#linearGradient3600"
       id="linearGradient3940"
       y2="47.013336"
       x2="25.132275"
       y1="0.98520643"
       x1="25.132275" />
    <linearGradient
       id="a"
       gradientTransform="matrix(0.49219581,0,0,0.45839231,4.509306,-4.793718)"
       gradientUnits="userSpaceOnUse"
       x1="23.731871"
       x2="23.731871"
       y1="5.3943448"
       y2="39.735077"
       xlink:href="#b-5">
      <stop
         offset="0"
         stop-color="#90dbec"
         id="stop2" />
      <stop
         offset=".26238"
         stop-color="#55c1ec"
         id="stop4" />
      <stop
         offset=".704952"
         stop-color="#3689e6"
         id="stop6" />
      <stop
         offset="1"
         stop-color="#2b63a0"
         id="stop8" />
    </linearGradient>
    <linearGradient
       id="b"
       gradientTransform="matrix(0,-0.5372019,0.57681717,0,-15.997188,19.865617)"
       gradientUnits="userSpaceOnUse"
       x1="40.957993"
       x2="18.680689"
       y1="46.97065"
       y2="46.97065">
      <stop
         offset="0"
         stop-color="#fff"
         id="stop11" />
      <stop
         offset=".45000002"
         stop-color="#fff"
         stop-opacity=".235294"
         id="stop13" />
      <stop
         offset=".65000004"
         stop-color="#fff"
         stop-opacity=".156863"
         id="stop15" />
      <stop
         offset="1"
         stop-color="#fff"
         stop-opacity=".392157"
         id="stop17" />
    </linearGradient>
    <linearGradient
       id="a-3"
       gradientTransform="matrix(0,-0.5372019,-0.57681717,0,58.997188,21.865617)"
       gradientUnits="userSpaceOnUse"
       x1="40.957993"
       x2="18.680689"
       y1="46.97065"
       y2="46.97065">
      <stop
         offset="0"
         stop-color="#fff"
         id="stop2-6" />
      <stop
         offset=".45000002"
         stop-color="#fff"
         stop-opacity=".235294"
         id="stop4-7" />
      <stop
         offset=".65000004"
         stop-color="#fff"
         stop-opacity=".156863"
         id="stop6-5" />
      <stop
         offset="1"
         stop-color="#fff"
         stop-opacity=".392157"
         id="stop8-3" />
    </linearGradient>
    <linearGradient
       id="b-5"
       gradientTransform="matrix(-0.4766877,0,0,0.44382351,37.94314,-2.5585311)"
       gradientUnits="userSpaceOnUse"
       x1="23.731871"
       x2="23.731871"
       y1="5.3943448"
       y2="40.783871">
      <stop
         offset="0"
         stop-color="#f0c1ff"
         id="stop11-6" />
      <stop
         offset="0.37219557"
         stop-color="#c5a3f2"
         id="stop13-2" />
      <stop
         offset="1"
         stop-color="#7a36b1"
         id="stop15-9" />
    </linearGradient>
    <radialGradient
       id="c"
       cx="24.837126"
       cy="36.421127"
       gradientTransform="matrix(-0.27598143,0,0,-0.29583148,33.172242,18.774521)"
       gradientUnits="userSpaceOnUse"
       r="15.644737">
      <stop
         offset="0"
         id="stop20" />
      <stop
         offset="1"
         stop-opacity="0"
         id="stop22" />
    </radialGradient>
    <linearGradient
       inkscape:collect="always"
       xlink:href="#linearGradient1156"
       id="linearGradient1158"
       x1="17.457523"
       y1="-2.3741965"
       x2="17.457523"
       y2="10.619582"
       gradientUnits="userSpaceOnUse" />
    <linearGradient
       inkscape:collect="always"
       xlink:href="#linearGradient1156"
       id="linearGradient1166"
       x1="15.911407"
       y1="2.2641518"
       x2="15.911407"
       y2="6.0999613"
       gradientUnits="userSpaceOnUse" />
  </defs>
  <metadata
     id="metadata3947">
    <rdf:RDF>
      <cc:Work
         rdf:about="">
        <dc:format>image/svg+xml</dc:format>
        <dc:type
           rdf:resource="http://purl.org/dc/dcmitype/StillImage" />
        <dc:title></dc:title>
      </cc:Work>
    </rdf:RDF>
  </metadata>
  <g
     id="g1960">
    <path
       style="display:inline;fill:url(#linearGradient3940);fill-opacity:1;stroke:none"
       id="path4160"
       d="m 1,1 c 2.2915074,0 11.999988,8.904e-4 11.999988,8.904e-4 L 13,15 H 1 Z"
       inkscape:connector-curvature="0"
       sodipodi:nodetypes="ccccc" />
    <path
       style="fill:none;stroke:url(#linearGradient3095);stroke-width:1;stroke-linecap:round;stroke-linejoin:miter;stroke-miterlimit:4;stroke-dasharray:none;stroke-dashoffset:0;stroke-opacity:1"
       id="rect6741-1"
       d="M 12.5,14.5 H 1.4999999 V 1.5 H 12.5 Z"
       inkscape:connector-curvature="0"
       sodipodi:nodetypes="ccccc" />
    <path
       style="display:inline;fill:none;stroke:url(#linearGradient3092);stroke-width:0.99992192;stroke-linecap:butt;stroke-linejoin:round;stroke-miterlimit:4;stroke-dasharray:none;stroke-dashoffset:0;stroke-opacity:1"
       id="path4160-8"
       d="m 0.4999621,0.49997396 c 2.5206756,0 13.0000629,9.54e-4 13.0000629,9.54e-4 l 1.3e-5,14.99909804 H 0.499962 Z"
       inkscape:connector-curvature="0"
       sodipodi:nodetypes="ccccc" />
  </g>
  <g
     transform="matrix(-0.64678195,0,0,0.64678195,22.291211,5.5355875)"
     id="g32">
    <g
       id="g869">
      <path
         sodipodi:nodetypes="cccccccc"
         id="path28"
         style="display:block;fill:url(#linearGradient1158);fill-opacity:1;stroke:#6326b9;stroke-width:1.54611611;stroke-linejoin:round;stroke-miterlimit:7;stroke-dasharray:none;stroke-opacity:0.49019608"
         d="m 16.710054,9.864121 7.03706,-6.1547966 -7.05559,-5.8627919 V 1.4939603 L 10.5,1.4999998 10.51853,6.1485495 16.710054,6.14251 Z"
         inkscape:connector-curvature="0" />
      <path
         sodipodi:type="inkscape:offset"
         inkscape:radius="-0.00011775"
         inkscape:original="M 16.691406 -2.1542969 L 16.691406 1.4941406 L 10.5 1.5 L 10.517578 6.1484375 L 16.710938 6.1425781 L 16.710938 9.8632812 L 23.748047 3.7089844 L 16.691406 -2.1542969 z "
         style="display:block;fill:url(#linearGradient1166);fill-opacity:1"
         id="path26"
         d="M 16.691406,-2.1542969 V 1.4941406 L 10.5,1.5 l 0.01758,4.6484375 6.19336,-0.00586 v 3.7207031 l 7.037109,-6.1542968 z" />
      <path
         d="M 17.691406,-0.08007812 V 2.4941406 L 11.5,2.5 l 0.01758,2.6484375 6.19336,-0.00586 v 2.6113281 l 4.470703,-4.0449218 z"
         id="path30"
         style="display:block;fill:none;stroke:url(#b);stroke-width:1.54611611;stroke-miterlimit:7;stroke-dasharray:none"
         inkscape:original="M 17.691406 -0.080078125 L 17.691406 2.4941406 L 11.5 2.5 L 11.517578 5.1484375 L 17.710938 5.1425781 L 17.710938 7.7539062 L 22.181641 3.7089844 L 17.691406 -0.080078125 z "
         inkscape:radius="0"
         sodipodi:type="inkscape:offset" />
    </g>
  </g>
</svg>
